app/assets/v2/images/avatar/HairStyle/womanhair2-8E2ABE.svg

<?xml version="1.0" standalone="no"?><!-- Generator: Gravit.io --><svg xmlns="http://www.w3.org/2000/svg" xmlns:xlink="http://www.w3.org/1999/xlink" style="isolation:isolate" viewBox="0 0 887.7 1011.7" width="887.7" height="1011.7"><defs><clipPath id="_clipPath_HrvfiihlzBtY9w1rQ1bqT1Xupfe3ryH6"><rect width="887.7" height="1011.7"/></clipPath></defs><g clip-path="url(#_clipPath_HrvfiihlzBtY9w1rQ1bqT1Xupfe3ryH6)"><path d=" M 693.999 414.8 C 695.999 306.5 656.899 237.8 608.099 195.7 C 513.899 114.3 371.299 114.3 279.599 195.7 C 231.399 238.5 191.699 306.5 193.699 414.8 C 193.699 414.8 188.699 641.2 293.799 705 C 293.799 705 288.799 635 333.799 635 L 340.099 635 C 335.299 631.2 330.599 627.2 326.099 622.9 C 278.699 577.9 273.799 508.8 273.799 446 C 273.799 380 293.999 334.8 293.999 334.8 C 293.999 334.8 327.199 374.8 383.999 374.8 C 383.999 374.8 318.299 322.9 353.999 304.8 C 353.999 304.8 480.499 312 606.999 456.6 C 611.699 461.9 614.199 468.8 614.099 475.9 C 613.799 504.1 608.499 579.1 561.599 622.9 C 557.099 627.1 552.399 631.1 547.399 635 L 553.799 635 C 598.799 635 593.799 705 593.799 705 C 698.999 641.1 693.999 414.8 693.999 414.8 Z " fill="rgb(142,42,190)" vector-effect="non-scaling-stroke" stroke-width="26.9" stroke="rgb(51,51,51)" stroke-linejoin="miter" stroke-linecap="butt" stroke-miterlimit="4"/></g></svg>

<svg xmlns="http://www.w3.org/2000/svg" style="isolation:isolate" width="887.7" height="1011.7"><defs><clipPath id="a"><path d="M0 0h887.7v1011.7H0z"/></clipPath></defs><g clip-path="url(#a)"><path d="M693.999 414.8c2-108.3-37.1-177-85.9-219.1-94.2-81.4-236.8-81.4-328.5 0-48.2 42.8-87.9 110.8-85.9 219.1 0 0-5 226.4 100.1 290.2 0 0-5-70 40-70h6.3c-4.8-3.8-9.5-7.8-14-12.1-47.4-45-52.3-114.1-52.3-176.9 0-66 20.2-111.2 20.2-111.2s33.2 40 90 40c0 0-65.7-51.9-30-70 0 0 126.5 7.2 253 151.8 4.7 5.3 7.2 12.2 7.1 19.3-.3 28.2-5.6 103.2-52.5 147-4.5 4.2-9.2 8.2-14.2 12.1h6.4c45 0 40 70 40 70 105.2-63.9 100.2-290.2 100.2-290.2z" fill="#8E2ABE" vector-effect="non-scaling-stroke" stroke-width="26.9" stroke="#333"/></g></svg>
